public/images/employers/compass.svg

<svg height="51" viewBox="0 0 372 51" width="372" xmlns="http://www.w3.org/2000/svg"><g fill="#231f20"><path d="m81.07 43.33c-7.375104.0445511-14.048816-4.3638148-16.90207-11.1647771s-1.322552-14.6513814 3.876706-19.8822375c5.199259-5.2308562 13.040259-6.8090942 19.858384-3.9970991s11.266845 9.4588751 11.26698 16.8341137c.016633 10.0210806-8.079003 18.1659166-18.1 18.21m0-43.24c-10.12322-.0526415-19.278949 6.0049236-23.189468 15.3424926s-1.803833 20.1117673 5.335777 27.2886973c7.13961 7.1769299 17.902679 9.3397591 27.260508 5.4779749 9.35783-3.8617842 15.463046-12.985808 15.463183-23.1091648.000186-13.7565095-11.113676-24.9284662-24.87-25"/><path d="m173.42 1.53c-.229625.0019833-.441713.1231765-.56.32l-25.63 34.85-25.63-34.85c-.120126-.1998741-.33681-.3215215-.57-.32-.371683-.0000402-.674534.2983574-.68.67v46.43h6.78v-27.42l19.7 26.6c.098793.1189328.245387.187735.4.187735s.301207-.0688022.4-.187735l19.7-26.6v27.42h6.78v-46.43c-.002633-.1803535-.076813-.352272-.206217-.4779255-.129405-.1256536-.30343-.1947463-.483783-.1920745"/><path d="m215.56 24.93h-15.8v-16.6h15.8c4.578441 0 8.29 3.7115594 8.29 8.29s-3.711559 8.29-8.29 8.29m0-23.4h-22.6v47.1h6.78v-16.86h15.8c8.345023 0 15.11-6.7649774 15.11-15.11s-6.764977-15.11-15.11-15.11"/><path d="m25.09 43.33c-8.544047.0481034-15.972592-5.850585-17.861801-14.1832882s2.269015-16.8583696 9.998373-20.4998085c7.729358-3.641439 16.951066-1.4192983 22.173428 5.3430967l4.87-4.81c-6.720879-8.1203694-17.813001-11.1527878-27.730325-7.5810517-9.917324 3.571736-16.528865 12.9801497-16.528865 23.5210517s6.611541 19.9493157 16.528865 23.5210517c9.917324 3.5717363 21.009446.5393177 27.730325-7.5810517l-4.87-4.81c-3.405208 4.4620746-8.697019 7.0802452-14.31 7.08"/><path d="m311.03 20.78-5.19-1.18c-5.58-1.2-6-5-6-6.19 0-3.85 3.07-6.06 8.42-6.06 5.5 0 9.52 3.73 10.75 5l4.77-4.69c-4.48-4.7-9.55-7-15.52-7-9.09 0-15.2 5.11-15.2 12.72 0 2.42 0 9.78 12.22 12.79l5.68 1.34c5.27 1.45 7.83 4 7.83 7.78 0 4.43-4.27 7.52-10.37 7.52-6.53 0-10.55-4.49-11.75-6l-4.71 4.64c3.21 3.66 8.69 8 16.53 8 9.77 0 17.14-6.1 17.14-14.18 0-7.24-5-12.26-14.55-14.51"/><path d="m356.66 20.78-5.19-1.18c-5.58-1.2-6-5-6-6.19 0-3.85 3.07-6.06 8.42-6.06 5.5 0 9.52 3.73 10.74 5l4.78-4.69c-4.48-4.7-9.56-7-15.52-7-9.09 0-15.2 5.11-15.2 12.72 0 2.42 0 9.78 12.22 12.79l5.71 1.31c5.26 1.45 7.82 4 7.82 7.78 0 4.43-4.26 7.52-10.36 7.52-6.53 0-10.56-4.49-11.75-6l-4.78 4.69c3.21 3.66 8.69 8 16.53 8 9.77 0 17.14-6.1 17.14-14.18 0-7.24-5-12.26-14.55-14.51"/><path d="m250.43 29.74 7.76-14.8 7.77 14.8zm7.76-28.63c-.266587.0023613-.507962.1580873-.62.4l-24.71 47.12h7.67l6.32-12.07h22.67l6.33 12.07h7.66l-24.7-47.12c-.113918-.2402701-.354135-.3952484-.62-.4z"/><path d="m70.38 31.01 4.79 4.82 16.58-16.67-4.8-4.82z"/></g></svg>

<?xml version="1.0" encoding="UTF-8"?>
<svg width="372px" height="51px" viewBox="0 0 372 51" version="1.1" xmlns="http://www.w3.org/2000/svg" xmlns:xlink="http://www.w3.org/1999/xlink">
    <!-- Generator: Sketch 51.2 (57519) - http://www.bohemiancoding.com/sketch -->
    <title>Group</title>
    <desc>Created with Sketch.</desc>
    <defs></defs>
    <g id="Page-1" stroke="none" stroke-width="1" fill="none" fill-rule="evenodd">
        <g id="Group" fill="#231F20" fill-rule="nonzero">
            <path d="M81.07,43.33 C73.694896,43.3745511 67.021184,38.9661852 64.16793,32.1652229 C61.314676,25.3642606 62.845378,17.5138415 68.044636,12.2829854 C73.243895,7.0521292 81.084895,5.4738912 87.90302,8.2858863 C94.721145,11.0978814 99.169865,17.7447614 99.17,25.12 C99.186633,35.1410806 91.090997,43.2859166 81.07,43.33 M81.07,0.09 C70.94678,0.0373585 61.791051,6.0949236 57.880532,15.4324926 C53.970013,24.7700616 56.076699,35.5442599 63.216309,42.7211899 C70.355919,49.8981198 81.118988,52.060949 90.476817,48.1991648 C99.834647,44.3373806 105.939863,35.2133568 105.94,25.09 C105.940186,11.3334905 94.826324,0.1615338 81.07,0.09" id="Shape"></path>
            <path d="M173.42,1.53 C173.190375,1.5319833 172.978287,1.6531765 172.86,1.85 L147.23,36.7 L121.6,1.85 C121.479874,1.6501259 121.26319,1.5284785 121.03,1.53 C120.658317,1.5299598 120.355466,1.8283574 120.35,2.2 L120.35,48.63 L127.13,48.63 L127.13,21.21 L146.83,47.81 C146.928793,47.9289328 147.075387,47.997735 147.23,47.997735 C147.384613,47.997735 147.531207,47.9289328 147.63,47.81 L167.33,21.21 L167.33,48.63 L174.11,48.63 L174.11,2.2 C174.107367,2.0196465 174.033187,1.847728 173.903783,1.7220745 C173.774378,1.5964209 173.600353,1.5273282 173.42,1.53" id="Shape"></path>
            <path d="M215.56,24.93 L199.76,24.93 L199.76,8.33 L215.56,8.33 C220.138441,8.33 223.85,12.0415594 223.85,16.62 C223.85,21.1984406 220.138441,24.91 215.56,24.91 M215.56,1.51 L192.96,1.51 L192.96,48.61 L199.74,48.61 L199.74,31.75 L215.54,31.75 C223.885023,31.75 230.65,24.9850226 230.65,16.64 C230.65,8.2949774 223.885023,1.53 215.54,1.53" id="Shape"></path>
            <path d="M25.09,43.33 C16.545953,43.3781034 9.117408,37.479415 7.228199,29.1467118 C5.33899,20.8140086 9.497214,12.2883422 17.226572,8.6469033 C24.95593,5.0054643 34.177638,7.227605 39.4,13.99 L44.27,9.18 C37.549121,1.0596306 26.456999,-1.9727878 16.539675,1.5989483 C6.622351,5.1706843 0.01081,14.579098 0.01081,25.12 C0.01081,35.660902 6.622351,45.0693157 16.539675,48.6410517 C26.456999,52.212788 37.549121,49.1803694 44.27,41.06 L39.4,36.25 C35.994792,40.7120746 30.702981,43.3302452 25.09,43.33" id="Shape"></path>
            <path d="M311.03,20.78 L305.84,19.6 C300.26,18.4 299.84,14.6 299.84,13.41 C299.84,9.56 302.91,7.35 308.26,7.35 C313.76,7.35 317.78,11.08 319.01,12.35 L323.78,7.66 C319.3,2.96 314.23,0.66 308.26,0.66 C299.17,0.66 293.06,5.77 293.06,13.38 C293.06,15.8 293.06,23.16 305.28,26.17 L310.96,27.51 C316.23,28.96 318.79,31.51 318.79,35.29 C318.79,39.72 314.52,42.81 308.42,42.81 C301.89,42.81 297.87,38.32 296.67,36.81 L291.96,41.45 C295.17,45.11 300.65,49.45 308.49,49.45 C318.26,49.45 325.63,43.35 325.63,35.27 C325.63,28.03 320.63,23.01 311.08,20.76" id="Shape"></path>
            <path d="M356.66,20.78 L351.47,19.6 C345.89,18.4 345.47,14.6 345.47,13.41 C345.47,9.56 348.54,7.35 353.89,7.35 C359.39,7.35 363.41,11.08 364.63,12.35 L369.41,7.66 C364.93,2.96 359.85,0.66 353.89,0.66 C344.8,0.66 338.69,5.77 338.69,13.38 C338.69,15.8 338.69,23.16 350.91,26.17 L356.62,27.48 C361.88,28.93 364.44,31.48 364.44,35.26 C364.44,39.69 360.18,42.78 354.08,42.78 C347.55,42.78 343.52,38.29 342.33,36.78 L337.55,41.47 C340.76,45.13 346.24,49.47 354.08,49.47 C363.85,49.47 371.22,43.37 371.22,35.29 C371.22,28.05 366.22,23.03 356.67,20.78" id="Shape"></path>
            <path d="M250.43,29.74 L258.19,14.94 L265.96,29.74 L250.43,29.74 Z M258.19,1.11 C257.923413,1.1123613 257.682038,1.2680873 257.57,1.51 L232.86,48.63 L240.53,48.63 L246.85,36.56 L269.52,36.56 L275.85,48.63 L283.51,48.63 L258.81,1.51 C258.696082,1.2697299 258.455865,1.1147516 258.19,1.11 Z" id="Shape"></path>
            <polygon id="Shape" points="70.38 31.01 75.17 35.83 91.75 19.16 86.95 14.34"></polygon>
        </g>
    </g>
</svg>
